web/ui/src/components/workflow/workflow-viewer/svgs/shape/flow-node.svg

<svg height="36" viewBox="0 0 36 36" width="36" xmlns="http://www.w3.org/2000/svg"><g fill="none" transform="matrix(0 1 -1 0 36 0)"><path d="m0 0h36v36h-36z" fill="#000" opacity="0"/><path d="m27.0034341 6.4755058c-1.0848535 0-1.964301-.87944753-1.964301-1.96430105 0-1.08485351.8794475-1.96430104 1.964301-1.96430104s1.964301.87944753 1.964301 1.96430104c0 1.08485352-.8794475 1.96430105-1.964301 1.96430105zm-7.0324976 25.0260949c0 .7944856-.4785866 1.510741-1.2125955 1.8147775-.734009.3040365-1.5788899.1359793-2.1406761-.4258069s-.7298435-1.4066671-.425807-2.1406761 1.0202919-1.2125955 1.8147776-1.2125955c1.0848535 0 1.964301.8794475 1.964301 1.964301zm-12.92540072-26.99039595c0-1.08485351.87944753-1.96430104 1.96430104-1.96430104 1.08485348 0 1.96430108.87944753 1.96430108 1.96430104 0 1.08485352-.8794476 1.96430105-1.96430108 1.96430105-1.08485351 0-1.96430104-.87944753-1.96430104-1.96430105zm24.45629762 0c0-2.31979549-1.7640704-4.25916579-4.073494-4.47828674-2.3094235-.21912095-4.4067516 1.35387512-4.8430341 3.63227559-.4362824 2.27840048.9315733 4.51493178 3.158577 5.16447451v4.49839929l-7.7372468 7.6772682-7.7522416-7.6922628v-4.49839936c2.1465701-.63012971 3.5038882-2.74191873 3.185585-4.95630566-.3183031-2.21438693-2.2154872-3.85836326-4.45263408-3.85836326-2.23714692 0-4.13433093 1.64397633-4.45263409 3.85836326-.31830317 2.21438693 1.03901493 4.32617595 3.18558497 4.95630566v5.51803656l8.9967986 8.9967986v3.8086447c-2.14657.6301298-3.5038881 2.7419188-3.1855849 4.9563057s2.2154872 3.8583633 4.4526341 3.8583633 4.1343309-1.6439764 4.4526341-3.8583633c.3183031-2.2143869-1.0390149-4.3261759-3.185585-4.9563057v-3.7786554l8.9967987-8.9967986v-5.53303119c1.9252597-.55429044 3.2519066-2.31500152 3.2538421-4.31846336z" fill="#00a6ab"/></g></svg>

<?xml version="1.0" encoding="UTF-8"?>
<svg width="36px" height="36px" viewBox="0 0 36 36" version="1.1" xmlns="http://www.w3.org/2000/svg" xmlns:xlink="http://www.w3.org/1999/xlink">
    <title>association</title>
    <g id="页面-1" stroke="none" stroke-width="1" fill="none" fill-rule="evenodd">
        <g id="association" transform="translate(18.000000, 18.000000) rotate(-270.000000) translate(-18.000000, -18.000000) " fill-rule="nonzero">
            <rect id="矩形" fill="#000000" opacity="0" x="0" y="0" width="36" height="36"></rect>
            <path d="M27.0034341,6.4755058 C25.9185806,6.4755058 25.0391331,5.59605827 25.0391331,4.51120475 C25.0391331,3.42635124 25.9185806,2.54690371 27.0034341,2.54690371 C28.0882876,2.54690371 28.9677351,3.42635124 28.9677351,4.51120475 C28.9677351,5.59605827 28.0882876,6.4755058 27.0034341,6.4755058 L27.0034341,6.4755058 Z M19.9709365,31.5016007 C19.9709365,32.2960863 19.4923499,33.0123417 18.758341,33.3163782 C18.024332,33.6204147 17.1794511,33.4523575 16.6176649,32.8905713 C16.0558787,32.3287851 15.8878214,31.4839042 16.1918579,30.7498952 C16.4958944,30.0158862 17.2121498,29.5372997 18.0066355,29.5372997 C19.091489,29.5372997 19.9709365,30.4167472 19.9709365,31.5016007 Z M7.04553578,4.51120475 C7.04553578,3.42635124 7.92498331,2.54690371 9.00983682,2.54690371 C10.0946903,2.54690371 10.9741379,3.42635124 10.9741379,4.51120475 C10.9741379,5.59605827 10.0946903,6.4755058 9.00983682,6.4755058 C7.92498331,6.4755058 7.04553578,5.59605827 7.04553578,4.51120475 L7.04553578,4.51120475 Z M31.5018334,4.51120475 C31.5018334,2.19140926 29.737763,0.252038958 27.4283394,0.0329180117 C25.1189159,-0.186202935 23.0215878,1.38679313 22.5853053,3.6651936 C22.1490229,5.94359408 23.5168786,8.18012538 25.7438823,8.82966811 L25.7438823,13.3280674 L18.0066355,21.0053356 L10.2543939,13.3130728 L10.2543939,8.81467344 C12.400964,8.18454373 13.7582821,6.07275471 13.4399789,3.85836778 C13.1216758,1.64398085 11.2244917,4.52451604e-06 8.98734482,4.52451604e-06 C6.7501979,4.52451604e-06 4.85301389,1.64398085 4.53471073,3.85836778 C4.21640756,6.07275471 5.57372566,8.18454373 7.7202957,8.81467344 L7.7202957,14.33271 L16.7170943,23.3295086 L16.7170943,27.1381533 C14.5705243,27.7682831 13.2132062,29.8800721 13.5315094,32.094459 C13.8498126,34.3088459 15.7469966,35.9528223 17.9841435,35.9528223 C20.2212904,35.9528223 22.1184744,34.3088459 22.4367776,32.094459 C22.7550807,29.8800721 21.3977627,27.7682831 19.2511926,27.1381533 L19.2511926,23.3594979 L28.2479913,14.3626993 L28.2479913,8.82966811 C30.173251,8.27537767 31.4998979,6.51466659 31.5018334,4.51120475 Z" id="形状" fill="#00A6AB"></path>
        </g>
    </g>
</svg>
